X:1
T: The Haggies o' Dumbar
C:
R:Reel
Q: 232
K:A
M:4/4
L:1/8
|:e|cB Ac E1/2E1/2F =G2|=G1/2B1/2c dG B2 GB|cB Ac E1/2E1/2E A2|A1/2c1/2d ed c2 Ae|
cB Ac E1/2E1/2F =G2|=G1/2B1/2c dG B2 GB|cB Ac E2 A2|A1/2c1/2d ed c2 Ac|
Ac1/2d1/2 eA cA eA|=GB1/2c1/2 dG B2 GB|Ac1/2d1/2 eA cA eA|Ac1/2d1/2 ed c2 Ac|
Ac1/2d1/2 eA cA eA|=GB1/2c1/2 dG B2 GB|cB Ac E1/2E1/2E A2|a1/2g1/2f1/2e1/2 ae c2 A:|
